X: 107
T: Fill the Cup
N:"Playfully"
B:O'Neill's 107
Z:Transcribed by henrik.norbeck@mailbox.swipnet.se
M:2/4
L:1/8
K:G
D|.D.E.G.A|B2 AG|cAAB|cAAB|
.D.E.G.A|B2 AG|BGGA|BG G||
d|.e.d.e.g|">"d2 cB|.c.A.A.B|.c.A.A.d|
.e.d.e.g|">"d2 cA|BGGA|BG G||


